X: 3303
T: LILA'S A LADY
Q: "Moderato."
%R: waltz, air
B: James Kerr "Merry Melodies" v.3 p.33 #303
Z: 2016 John Chambers <jc:trillian.mit.edu>
M: 3/4
L: 1/4
K: G
ud |\
Bdd | edd | Bdd | (d2B) |\
ceg | gfe | edd | (d2B) |\
dcc | (a2c) | cBB | (g2B) |\
dcc | cBB | d/^c/e/d/=c/A/ | G2 :|

%%sep 1 1 500
%%sep 1 1 500

